X:1
T:Title
%%score 1 { 2 | 3 }
L:1/8
Q:1/4=100
M:4/4
K:Eb
V:1 treble nm="Grand Piano, Soprano"
V:2 treble nm="Choir Pad, Just as God Leads Me"
V:3 bass 
V:1
 [EG]2 [EB][EB] [EA]2 [Ae]2 | [Ge]3 [GB] [GB]4 | [FA]2 [DF][EG] [FA]2 [Ac]2 | [Ac]3 [GB] [EG]4 | %4
w: By~William~Fiske~Sherwin,~1898 * * * *||||
 [GB]2 [_Gc][Gc] [=GB]2 [Ge]2 | [Ge]3 [EG] [EG]4 | [CF]2 [EG][E=A] [FB]2 [Fd]2 | [Ec]3 [DB] [DB]4 | %8
w: ||||
 [Fd]2 [Fd][Fd] [Af]2 [Ad]2 | [Ge]3 [Ac] [GB]4 | [FA]2 [FA][FA] [Ad]2 [Ac]2 | [GB]3 [EA] [EG]4 | %12
w: ||||
 [EA]2 [EB][EB] [Ec]2 [DF]2 | [DA]4 [EG]4- | [EG]4 z4 |] %15
w: |||
V:2
 B,2 _DD C2 =B,2 | B,3 B, B,4 | B,2 B,B,- B,B,[K:treble] D2 | E3 E B,4 | %4
 B,2[K:bass] =A,A, B,2 B,2 | C3[K:treble] C C4 | =A,2 CC[K:bass] B,2 B,2 | =A,3 B, B,4 | %8
 B,2 B,B,[K:treble] D2 F2 | E3 E E4 | D2 DD D2 D2 | E3 C[K:bass] B,4 | A,2 G,G, F,2 F,2 | %13
 F,2 B,2 B,4- | B,4 z4 |] %15
V:3
 E,2 E,E, E,2 E,2 | E,3 E, E,4 | B,,2 B,,B,,- B,,B,, B,,2 | E,3 E, E,4 | E,2 E,E, E,2 E,2 | %5
 C,3 C, C,4 | F,2 F,F, D,2 B,,2 | F,3 B,, B,,4 | z4 B,2 B,2 | E,3 E, E,4 | B,,2 B,,B,, B,,2 B,,2 | %11
 E,3 E, E,4 | C,2 B,,B,, =A,,2 B,,2 | B,,4 [E,,E,]4- | [E,,E,]4 z4 |] %15

